!!!COM: Music21
!!!OTL: Pasacorredoiras de Campañó
!!!OMV: pezas_pasacorredoiras_pasacorredoiras-de-campano_pasacorredoiras-de-campano-partitura.musicxml
**kern
*I"Bagpipes
*I'Bag
*clefG^2
*k[]
*M2/4
*MM100
=1
!LO:TX:a:t=[quarter]=100
16eeLL
16ee
16ee
16ccJJ
16eeLL
16cc
16ee
16ffJJ
=
16ggLL
16ee
16gg
16eeJJ
16aaLL
16gg
16ff
16eeJJ
=
16ddLL
16ee
16dd
16bJJ
16ccLL
16dd
16ee
16ffJJ
=
16ggLL
16ff
16ee
16ddJJ
4cc
=
16eeLL
16ee
16ee
16ccJJ
16eeLL
16cc
16ee
16ffJJ
!!linebreak:original
=
16ggLL
16aa
16gg
16eeJJ
16ffLL
16gg
16ff
16ddJJ
!!linebreak:original
=
16eeLL
16ff
16ee
16ccJJ
16eeLL
16ff
16dd
16bJJ
=
2cc
=
16eeLL
16ff
16ff
16ddJJ
16eeLL
16ff
16ff
16ddJJ
=
16eeLL
16cc
16ee
16ccJJ
16ddLL
16ee
16ff
16ddJJ
=
16aaLL
16gg
16ee
16ccJJ
16eeLL
16ff
16dd
16bJJ
=
8ddL
8ccJ
8ccL
8ggJ
!!linebreak:original
=
8cccL
8ggJ
8eeL
16ccL
16eeJJ
!!linebreak:original
=
16aaLL
16gg
16ff
16eeJJ
8.ddL
16eeJk
=
16ffLL
16ee
16ff
16ddJJ
16ddLL
16b
16dd
16aaJJ
=
16ggLL
16ff
16ee
16ddJJ
8ccL
8ccJ
=
8cccL
8ggJ
8eeL
16ccL
16eeJJ
=
16aaLL
16gg
16ff
16eeJJ
16ddLL
16ee
16ff
16ggJJ
=
16cccLL
16gg
16ee
16ccJJ
16eeLL
16ff
16dd
16bJJ
!!linebreak:original
=
2cc
==
*-
